src/assets/outline/GalleryEdit.svg

<svg width="24" height="24" viewBox="0 0 24 24"  xmlns="http://www.w3.org/2000/svg">
<path d="M9 10.75C7.48 10.75 6.25 9.52 6.25 8C6.25 6.48 7.48 5.25 9 5.25C10.52 5.25 11.75 6.48 11.75 8C11.75 9.52 10.52 10.75 9 10.75ZM9 6.75C8.31 6.75 7.75 7.31 7.75 8C7.75 8.69 8.31 9.25 9 9.25C9.69 9.25 10.25 8.69 10.25 8C10.25 7.31 9.69 6.75 9 6.75Z" />
<path d="M15 22.75H9C3.57 22.75 1.25 20.43 1.25 15V9C1.25 3.57 3.57 1.25 9 1.25H13C13.41 1.25 13.75 1.59 13.75 2C13.75 2.41 13.41 2.75 13 2.75H9C4.39 2.75 2.75 4.39 2.75 9V15C2.75 19.61 4.39 21.25 9 21.25H15C19.61 21.25 21.25 19.61 21.25 15V10C21.25 9.59 21.59 9.25 22 9.25C22.41 9.25 22.75 9.59 22.75 10V15C22.75 20.43 20.43 22.75 15 22.75Z" />
<path d="M15.6699 9.74994C15.2799 9.74994 14.9199 9.60994 14.6599 9.33994C14.3499 9.02994 14.1999 8.56994 14.2699 8.09994L14.4699 6.70994C14.5199 6.35994 14.7299 5.92994 14.9899 5.67994L18.6199 2.04994C20.0699 0.599939 21.3299 1.42994 21.9499 2.04994C22.5399 2.63994 22.8099 3.25994 22.7499 3.89994C22.6999 4.40994 22.4399 4.89994 21.9499 5.37994L18.3199 9.00994C18.0699 9.25994 17.6399 9.46994 17.2899 9.52994L15.8999 9.72994C15.8199 9.74994 15.7399 9.74994 15.6699 9.74994ZM19.6699 3.11994L16.0399 6.74994C16.0099 6.77994 15.9599 6.88994 15.9499 6.93994L15.7599 8.23994L17.0699 8.05994C17.1099 8.04994 17.2199 7.99994 17.2599 7.95994L20.8899 4.32994C21.1099 4.10994 21.2399 3.90994 21.2499 3.75994C21.2699 3.54994 21.0599 3.28994 20.8899 3.11994C20.3699 2.59994 20.1299 2.65994 19.6699 3.11994Z" />
<path d="M20.8998 6.13001C20.8298 6.13001 20.7598 6.12001 20.6998 6.10001C19.3598 5.72001 18.2898 4.65001 17.9098 3.31001C17.7998 2.91001 18.0298 2.50001 18.4298 2.39001C18.8298 2.28001 19.2398 2.51001 19.3498 2.91001C19.5898 3.75001 20.2598 4.43001 21.1098 4.67001C21.5098 4.78001 21.7398 5.20001 21.6298 5.59001C21.5198 5.91001 21.2198 6.13001 20.8998 6.13001Z" />
<path d="M2.6698 19.7001C2.4298 19.7001 2.1898 19.5801 2.0498 19.3701C1.8198 19.0301 1.9098 18.5601 2.2498 18.3301L7.1798 15.0201C8.2598 14.3001 9.7498 14.3801 10.7298 15.2101L11.0598 15.5001C11.5598 15.9301 12.4098 15.9301 12.8998 15.5001L17.0598 11.9301C18.1198 11.0201 19.7898 11.0201 20.8598 11.9301L22.4898 13.3301C22.7998 13.6001 22.8398 14.0701 22.5698 14.3901C22.2998 14.7001 21.8298 14.7401 21.5098 14.4701L19.8798 13.0701C19.3798 12.6401 18.5298 12.6401 18.0398 13.0701L13.8798 16.6401C12.8198 17.5501 11.1498 17.5501 10.0798 16.6401L9.7498 16.3501C9.2898 15.9601 8.52981 15.9201 8.01981 16.2701L3.0998 19.5801C2.9598 19.6601 2.8098 19.7001 2.6698 19.7001Z" />
</svg>

<?xml version="1.0" encoding="UTF-8"?>
<svg width="24" height="24" viewBox="0 0 24 24" xmlns="http://www.w3.org/2000/svg">
 <path d="m9 10.75c-1.52 0-2.75-1.23-2.75-2.75s1.23-2.75 2.75-2.75 2.75 1.23 2.75 2.75-1.23 2.75-2.75 2.75zm0-4c-0.69 0-1.25 0.56-1.25 1.25s0.56 1.25 1.25 1.25 1.25-0.56 1.25-1.25-0.56-1.25-1.25-1.25z"/>
 <path d="m15 22.75h-6c-5.43 0-7.75-2.32-7.75-7.75v-6c0-5.43 2.32-7.75 7.75-7.75h4c0.41 0 0.75 0.34 0.75 0.75s-0.34 0.75-0.75 0.75h-4c-4.61 0-6.25 1.64-6.25 6.25v6c0 4.61 1.64 6.25 6.25 6.25h6c4.61 0 6.25-1.64 6.25-6.25v-5c0-0.41 0.34-0.75 0.75-0.75s0.75 0.34 0.75 0.75v5c0 5.43-2.32 7.75-7.75 7.75z"/>
 <path d="m15.67 9.7499c-0.39 0-0.75-0.14-1.01-0.41-0.31-0.31-0.46-0.77-0.39-1.24l0.2-1.39c0.05-0.35 0.26-0.78 0.52-1.03l3.63-3.63c1.45-1.45 2.71-0.62 3.33 0 0.59 0.59 0.86 1.21 0.8 1.85-0.05 0.51-0.31 1-0.8 1.48l-3.63 3.63c-0.25 0.25-0.68 0.46-1.03 0.52l-1.39 0.2c-0.08 0.02-0.16 0.02-0.23 0.02zm4-6.63-3.63 3.63c-0.03 0.03-0.08 0.14-0.09 0.19l-0.19 1.3 1.31-0.18c0.04-0.01 0.15-0.06 0.19-0.1l3.63-3.63c0.22-0.22 0.35-0.42 0.36-0.57 0.02-0.21-0.19-0.47-0.36-0.64-0.52-0.52-0.76-0.46-1.22 0z"/>
 <path d="m20.9 6.13c-0.07 0-0.14-0.01-0.2-0.03-1.34-0.38-2.41-1.45-2.79-2.79-0.11-0.4 0.12-0.81 0.52-0.92s0.81 0.12 0.92 0.52c0.24 0.84 0.91 1.52 1.76 1.76 0.4 0.11 0.63 0.53 0.52 0.92-0.11 0.32-0.41 0.54-0.73 0.54z"/>
 <path d="m2.6698 19.7c-0.24 0-0.48-0.12-0.62-0.33-0.23-0.34-0.14-0.81 0.2-1.04l4.93-3.31c1.08-0.72 2.57-0.64 3.55 0.19l0.33 0.29c0.5 0.43 1.35 0.43 1.84 0l4.16-3.57c1.06-0.91 2.73-0.91 3.8 0l1.63 1.4c0.31 0.27 0.35 0.74 0.08 1.06-0.27 0.31-0.74 0.35-1.06 0.08l-1.63-1.4c-0.5-0.43-1.35-0.43-1.84 0l-4.16 3.57c-1.06 0.91-2.73 0.91-3.8 0l-0.33-0.29c-0.46-0.39-1.22-0.43-1.73-0.08l-4.92 3.31c-0.14 0.08-0.29 0.12-0.43 0.12z"/>
</svg>
